svg/color/coredao.svg

<svg width="64" height="65" viewBox="0 0 64 65" fill="none" xmlns="http://www.w3.org/2000/svg">
<path d="M0 32.3037C0 14.6306 14.3269 0.303711 32 0.303711C49.6731 0.303711 64 14.6306 64 32.3037C64 49.9768 49.6731 64.3037 32 64.3037C14.3269 64.3037 0 49.9768 0 32.3037Z" fill="black"/>
<path d="M32 0.803711C49.397 0.803711 63.5 14.9067 63.5 32.3037C63.5 49.7007 49.397 63.8037 32 63.8037C14.603 63.8037 0.5 49.7007 0.5 32.3037C0.5 14.9067 14.603 0.803711 32 0.803711Z" stroke="white" stroke-opacity="0.15"/>
<path fill-rule="evenodd" clip-rule="evenodd" d="M31.5 13.185L15.391 22.4944V41.1258L31.5 50.4351L47.609 41.1258V22.4944L31.5 13.185ZM32.1765 8.48568C31.7553 8.24305 31.2447 8.24305 30.8235 8.48568L11.6765 19.5573C11.2553 19.7999 11 20.2469 11 20.7321V42.8753C11 43.3606 11.2553 43.8075 11.6765 44.0501L30.8235 55.1217C31.2447 55.3644 31.7553 55.3644 32.1765 55.1217L51.3235 44.0501C51.7447 43.8075 52 43.3606 52 42.8753V20.7321C52 20.2469 51.7447 19.7999 51.3235 19.5573L32.1765 8.48568Z" fill="#FF9211"/>
<path d="M31.5 19.9277L21.2245 25.8657V37.7418L31.4362 43.6416C31.4745 43.6671 31.5 43.7054 31.5 43.7565V45.7869C31.5 45.8891 31.3851 45.9529 31.2958 45.9018L19.7055 39.2104C19.3864 39.0316 19.1949 38.6996 19.1949 38.3292V25.2783C19.1949 24.9207 19.3864 24.5759 19.7055 24.3972L30.9894 17.8717C31.3085 17.6929 31.6915 17.6929 31.9978 17.8717L43.6392 24.5759C43.7285 24.627 43.7285 24.7547 43.6392 24.8058C42.9499 25.2144 42.6052 25.3932 41.8266 25.8274C41.7883 25.8529 41.7372 25.8529 41.6989 25.8274L31.5 19.9277Z" fill="#FF9211"/>
<path d="M33.1977 32.0592C33.1977 32.0081 33.2232 31.957 33.2743 31.9442L43.486 26.5042C43.5753 26.4531 43.6902 26.517 43.6902 26.6191V39.8616C43.6902 39.9127 43.6647 39.951 43.6264 39.9766L33.4147 45.9146C33.3253 45.9657 33.2105 45.9018 33.2105 45.7997V32.0592H33.1977Z" fill="#FF9211"/>
</svg>

<svg xmlns="http://www.w3.org/2000/svg" width="64" height="65" fill="none" viewBox="0 0 64 65"><path fill="#000" d="M0 32.304c0-17.673 14.327-32 32-32s32 14.327 32 32-14.327 32-32 32-32-14.327-32-32"/><path stroke="#fff" stroke-opacity=".15" d="M32 .804c17.397 0 31.5 14.103 31.5 31.5s-14.103 31.5-31.5 31.5S.5 49.7.5 32.304 14.603.804 32 .804Z"/><path fill="#FF9211" fill-rule="evenodd" d="m31.5 13.185-16.109 9.31v18.63l16.109 9.31 16.109-9.31v-18.63zm.676-4.7a1.35 1.35 0 0 0-1.353 0L11.677 19.558c-.422.243-.677.69-.677 1.175v22.143c0 .486.255.932.677 1.175l19.147 11.072c.42.242.931.242 1.352 0L51.325 44.05c.42-.242.676-.69.676-1.175V20.732c0-.485-.255-.932-.676-1.175z" clip-rule="evenodd"/><path fill="#FF9211" d="m31.5 19.928-10.276 5.938v11.876l10.212 5.9a.13.13 0 0 1 .064.114v2.03c0 .103-.115.167-.204.116l-11.59-6.692a1 1 0 0 1-.511-.88V25.277c0-.357.191-.702.51-.88l11.284-6.526c.32-.18.703-.18 1.009 0l11.641 6.704c.09.051.09.179 0 .23-.69.408-1.034.587-1.812 1.021a.12.12 0 0 1-.128 0z"/><path fill="#FF9211" d="M33.198 32.06c0-.052.025-.103.076-.116l10.212-5.44c.09-.05.204.013.204.115v13.243c0 .05-.025.089-.064.115l-10.211 5.938c-.09.05-.204-.013-.204-.115V32.06z"/></svg>
